Newaita/actions/24/distribute-horizontal-x.svg

<?xml version="1.0" encoding="UTF-8"?>
<svg xmlns="http://www.w3.org/2000/svg" xmlns:xlink="http://www.w3.org/1999/xlink" width="24pt" height="24pt" viewBox="0 0 24 24" version="1.1">
<g id="surface1">
<path style=" stroke:none;fill-rule:nonzero;fill:rgb(25.882354%,25.882354%,25.882354%);fill-opacity:1;" d="M 2.480469 6.140625 C 1.65625 6.140625 0.992188 6.804688 0.992188 7.628906 L 0.992188 16.558594 C 0.992188 17.382812 1.65625 18.046875 2.480469 18.046875 L 5.457031 18.046875 C 6.28125 18.046875 6.945312 17.382812 6.945312 16.558594 L 6.945312 7.628906 C 6.945312 6.804688 6.28125 6.140625 5.457031 6.140625 Z M 3.472656 7.628906 L 4.464844 7.628906 C 5.015625 7.628906 5.457031 8.070312 5.457031 8.621094 L 5.457031 15.566406 C 5.457031 16.117188 5.015625 16.558594 4.464844 16.558594 L 3.472656 16.558594 C 2.921875 16.558594 2.480469 16.117188 2.480469 15.566406 L 2.480469 8.621094 C 2.480469 8.070312 2.921875 7.628906 3.472656 7.628906 Z M 3.472656 7.628906 "/>
<path style=" stroke:none;fill-rule:nonzero;fill:rgb(25.882354%,25.882354%,25.882354%);fill-opacity:1;" d="M 18.355469 6.140625 C 17.53125 6.140625 16.867188 6.804688 16.867188 7.628906 L 16.867188 16.558594 C 16.867188 17.382812 17.53125 18.046875 18.355469 18.046875 L 21.335938 18.046875 C 22.160156 18.046875 22.824219 17.382812 22.824219 16.558594 L 22.824219 7.628906 C 22.824219 6.804688 22.160156 6.140625 21.335938 6.140625 Z M 19.347656 7.628906 L 20.339844 7.628906 C 20.890625 7.628906 21.335938 8.070312 21.335938 8.621094 L 21.335938 15.566406 C 21.335938 16.117188 20.890625 16.558594 20.339844 16.558594 L 19.347656 16.558594 C 18.800781 16.558594 18.355469 16.117188 18.355469 15.566406 L 18.355469 8.621094 C 18.355469 8.070312 18.800781 7.628906 19.347656 7.628906 Z M 19.347656 7.628906 "/>
<path style=" stroke:none;fill-rule:nonzero;fill:rgb(47.058824%,56.470591%,61.176473%);fill-opacity:1;" d="M 8.929688 10.109375 C 8.378906 10.109375 7.9375 10.554688 7.9375 11.101562 L 7.9375 13.085938 C 7.9375 13.636719 8.378906 14.078125 8.929688 14.078125 C 9.480469 14.078125 9.921875 13.636719 9.921875 13.085938 L 13.890625 13.085938 C 13.890625 13.636719 14.335938 14.078125 14.882812 14.078125 C 15.433594 14.078125 15.875 13.636719 15.875 13.085938 L 15.875 11.101562 C 15.875 10.554688 15.433594 10.109375 14.882812 10.109375 C 14.335938 10.109375 13.890625 10.554688 13.890625 11.101562 L 9.921875 11.101562 C 9.921875 10.554688 9.480469 10.109375 8.929688 10.109375 Z M 8.929688 10.109375 "/>
</g>
</svg>

<svg xmlns="http://www.w3.org/2000/svg" width="32" height="32" viewBox="0 0 24 24"><path d="M2.48 6.14c-.824 0-1.488.665-1.488 1.489v8.93c0 .824.664 1.488 1.488 1.488h2.977c.824 0 1.488-.664 1.488-1.488v-8.93c0-.824-.664-1.488-1.488-1.488zm.993 1.489h.992c.55 0 .992.441.992.992v6.945c0 .551-.441.993-.992.993h-.992a.989.989 0 0 1-.993-.993V8.621c0-.55.442-.992.993-.992zm0 0M18.355 6.14c-.824 0-1.488.665-1.488 1.489v8.93c0 .824.664 1.488 1.488 1.488h2.98c.825 0 1.49-.664 1.49-1.488v-8.93c0-.824-.665-1.488-1.49-1.488zm.993 1.489h.992c.55 0 .996.441.996.992v6.945c0 .551-.445.993-.996.993h-.992a.991.991 0 0 1-.993-.993V8.621c0-.55.446-.992.993-.992zm0 0" fill="#424242"/><path d="M8.93 10.11a.991.991 0 0 0-.992.992v1.984c0 .55.44.992.992.992.55 0 .992-.441.992-.992h3.969c0 .55.445.992.992.992.55 0 .992-.441.992-.992v-1.984a.991.991 0 1 0-1.984 0H9.92a.991.991 0 0 0-.991-.993zm0 0" fill="#78909c"/></svg>
